src/lib/packages/icons/src/assets/filled/face-drooling.svg

<svg width="24" height="24" viewBox="0 0 24 24" fill="none" xmlns="http://www.w3.org/2000/svg">
<path d="M12 2C6.48 2 2 6.48 2 12C2 17.52 6.48 22 12 22C17.52 22 22 17.52 22 12C22 6.48 17.52 2 12 2ZM6.92999 10.71C6.53999 10.57 6.32997 10.15 6.46997 9.75999C6.77997 8.85999 7.63003 8.25 8.59003 8.25C9.55003 8.25 10.4 8.84999 10.71 9.75999C10.84 10.15 10.64 10.58 10.25 10.71C10.17 10.74 10.09 10.75 10 10.75C9.69 10.75 9.39998 10.56 9.28998 10.24C9.18998 9.95001 8.90003 9.75 8.59003 9.75C8.28003 9.75 7.99001 9.95001 7.89001 10.24C7.76001 10.63 7.33 10.84 6.94 10.7L6.92999 10.71ZM16.59 14.46C16.34 14.79 16.05 15.09 15.74 15.36V18.01C15.74 18.42 15.4 18.76 14.99 18.76C14.58 18.76 14.24 18.42 14.24 18.01V16.29C14.08 16.36 13.91 16.42 13.74 16.48V17.01C13.74 17.42 13.4 17.76 12.99 17.76C12.58 17.76 12.24 17.42 12.24 17.01V16.75C12.16 16.75 12.07 16.76 11.99 16.76C10.2 16.76 8.48002 15.9 7.40002 14.46C7.15002 14.13 7.21999 13.66 7.54999 13.41C7.88999 13.16 8.34998 13.23 8.59998 13.56C9.39998 14.62 10.67 15.26 11.99 15.26C13.31 15.26 14.57 14.64 15.39 13.56C15.64 13.23 16.11 13.17 16.44 13.42C16.77 13.67 16.83 14.14 16.58 14.47L16.59 14.46ZM17.06 10.71C16.98 10.74 16.9 10.75 16.81 10.75C16.5 10.75 16.21 10.56 16.1 10.24C16 9.95001 15.71 9.75 15.4 9.75C15.09 9.75 14.8 9.95001 14.7 10.24C14.57 10.63 14.14 10.84 13.75 10.7C13.36 10.56 13.15 10.14 13.29 9.75C13.6 8.85 14.45 8.24001 15.41 8.24001C16.37 8.24001 17.22 8.84 17.53 9.75C17.66 10.14 17.46 10.57 17.07 10.7L17.06 10.71Z" fill="currentColor"/>
</svg>

<svg xmlns="http://www.w3.org/2000/svg" width="24" height="24" fill="none"><path fill="currentColor" d="M12 2C6.48 2 2 6.48 2 12s4.48 10 10 10 10-4.48 10-10S17.52 2 12 2Zm-5.07 8.71a.744.744 0 0 1-.46-.95c.31-.9 1.16-1.51 2.12-1.51.96 0 1.81.6 2.12 1.51a.748.748 0 0 1-.71.99c-.31 0-.6-.19-.71-.51a.747.747 0 0 0-1.4 0 .74.74 0 0 1-.95.46l-.01.01Zm9.66 3.75c-.25.33-.54.63-.85.9v2.65c0 .41-.34.75-.75.75s-.75-.34-.75-.75v-1.72c-.16.07-.33.13-.5.19v.53c0 .41-.34.75-.75.75s-.75-.34-.75-.75v-.26c-.08 0-.17.01-.25.01-1.79 0-3.51-.86-4.59-2.3a.75.75 0 0 1 1.2-.9c.8 1.06 2.07 1.7 3.39 1.7 1.32 0 2.58-.62 3.4-1.7a.749.749 0 1 1 1.19.91l.01-.01Zm.47-3.75a.69.69 0 0 1-.25.04c-.31 0-.6-.19-.71-.51a.747.747 0 0 0-.7-.49c-.31 0-.6.2-.7.49a.74.74 0 0 1-.95.46.744.744 0 0 1-.46-.95c.31-.9 1.16-1.51 2.12-1.51.96 0 1.81.6 2.12 1.51.13.39-.07.82-.46.95l-.01.01Z"/></svg>
